src/assets/outline/SmsEdit.svg

<svg width="24" height="24" viewBox="0 0 24 24"  xmlns="http://www.w3.org/2000/svg">
<path d="M12 21.25H7C3.35 21.25 1.25 19.15 1.25 15.5V8.5C1.25 4.85 3.35 2.75 7 2.75H17C20.65 2.75 22.75 4.85 22.75 8.5V11.5C22.75 11.91 22.41 12.25 22 12.25C21.59 12.25 21.25 11.91 21.25 11.5V8.5C21.25 5.64 19.86 4.25 17 4.25H7C4.14 4.25 2.75 5.64 2.75 8.5V15.5C2.75 18.36 4.14 19.75 7 19.75H12C12.41 19.75 12.75 20.09 12.75 20.5C12.75 20.91 12.41 21.25 12 21.25Z" />
<path d="M11.9998 12.87C11.1598 12.87 10.3098 12.61 9.65978 12.08L6.52978 9.57996C6.20978 9.31996 6.14978 8.84997 6.40978 8.52997C6.66978 8.20997 7.13977 8.15997 7.45977 8.40997L10.5898 10.91C11.3498 11.52 12.6398 11.52 13.3998 10.91L16.5298 8.40997C16.8498 8.14997 17.3198 8.19997 17.5798 8.52997C17.8398 8.84997 17.7898 9.32996 17.4598 9.57996L14.3298 12.08C13.6898 12.61 12.8398 12.87 11.9998 12.87Z" />
<path d="M15.8201 21.7801C15.4401 21.7801 15.0801 21.6401 14.8201 21.3801C14.5101 21.0701 14.3701 20.6201 14.4401 20.1501L14.6301 18.8001C14.6801 18.4501 14.8901 18.0301 15.1401 17.7801L18.68 14.2401C19.16 13.7601 19.6301 13.5101 20.1401 13.4601C20.7601 13.4001 21.38 13.6601 21.96 14.2401C22.54 14.8201 22.8 15.4301 22.74 16.0601C22.69 16.5601 22.43 17.0401 21.96 17.5201L18.4201 21.0601C18.1701 21.3101 17.75 21.5201 17.4 21.5701L16.05 21.7601C15.97 21.7701 15.9001 21.7801 15.8201 21.7801ZM20.31 14.9501C20.3 14.9501 20.29 14.9501 20.28 14.9501C20.14 14.9601 19.95 15.0901 19.74 15.3001L16.2001 18.8401C16.1701 18.8701 16.12 18.9701 16.12 19.0101L15.9401 20.2601L17.1901 20.0801C17.2301 20.0701 17.33 20.0201 17.36 19.9901L20.9 16.4501C21.11 16.2301 21.24 16.0501 21.2501 15.9101C21.2701 15.7101 21.07 15.4701 20.9 15.3001C20.74 15.1401 20.51 14.9501 20.31 14.9501Z" />
<path d="M20.9201 18.2499C20.8501 18.2499 20.7801 18.2399 20.7201 18.2199C19.4001 17.8499 18.3501 16.7999 17.9801 15.4799C17.8701 15.0799 18.1001 14.6699 18.5001 14.5499C18.9001 14.4399 19.3101 14.6699 19.4201 15.0699C19.6501 15.8899 20.3001 16.5399 21.1201 16.7699C21.5201 16.8799 21.7501 17.2999 21.6401 17.6999C21.5501 18.0299 21.2501 18.2499 20.9201 18.2499Z" />
</svg>

<?xml version="1.0" encoding="UTF-8"?>
<svg width="24" height="24" viewBox="0 0 24 24" xmlns="http://www.w3.org/2000/svg">
 <path d="m12 21.25h-5c-3.65 0-5.75-2.1-5.75-5.75v-7c0-3.65 2.1-5.75 5.75-5.75h10c3.65 0 5.75 2.1 5.75 5.75v3c0 0.41-0.34 0.75-0.75 0.75s-0.75-0.34-0.75-0.75v-3c0-2.86-1.39-4.25-4.25-4.25h-10c-2.86 0-4.25 1.39-4.25 4.25v7c0 2.86 1.39 4.25 4.25 4.25h5c0.41 0 0.75 0.34 0.75 0.75s-0.34 0.75-0.75 0.75z"/>
 <path d="m12 12.87c-0.84 0-1.69-0.26-2.34-0.79l-3.13-2.5c-0.32-0.26-0.38-0.72999-0.12-1.05s0.72999-0.37 1.05-0.12l3.13 2.5c0.76 0.61 2.05 0.61 2.81 0l3.13-2.5c0.32-0.26 0.79-0.21 1.05 0.12 0.26 0.32 0.21 0.79999-0.12 1.05l-3.13 2.5c-0.64 0.53-1.49 0.79-2.33 0.79z"/>
 <path d="m15.82 21.78c-0.38 0-0.74-0.14-1-0.4-0.31-0.31-0.45-0.76-0.38-1.23l0.19-1.35c0.05-0.35 0.26-0.77 0.51-1.02l3.5399-3.54c0.48-0.48 0.9501-0.73 1.4601-0.78 0.62-0.06 1.2399 0.2 1.8199 0.78s0.84 1.19 0.78 1.82c-0.05 0.5-0.31 0.98-0.78 1.46l-3.5399 3.54c-0.25 0.25-0.6701 0.46-1.0201 0.51l-1.35 0.19c-0.08 0.01-0.1499 0.02-0.2299 0.02zm4.4899-6.83h-0.03c-0.14 0.01-0.33 0.14-0.54 0.35l-3.5399 3.54c-0.03 0.03-0.0801 0.13-0.0801 0.17l-0.1799 1.25 1.25-0.18c0.04-0.01 0.1399-0.06 0.1699-0.09l3.54-3.54c0.21-0.22 0.34-0.4 0.3501-0.54 0.02-0.2-0.1801-0.44-0.3501-0.61-0.16-0.16-0.39-0.35-0.59-0.35z"/>
 <path d="m20.92 18.25c-0.07 0-0.14-0.01-0.2-0.03-1.32-0.37-2.37-1.42-2.74-2.74-0.11-0.4 0.12-0.81 0.52-0.93 0.4-0.11 0.81 0.12 0.92 0.52 0.23 0.82 0.88 1.47 1.7 1.7 0.4 0.11 0.63 0.53 0.52 0.93-0.09 0.33-0.39 0.55-0.72 0.55z"/>
</svg>
